X: 76
T:Cripple Creek
% Nottingham Music Database
S:Lynn Rohrbough, via EF
M:4/4
L:1/4
K:A
P:A
"A"aa e/2g/2f/2e/2|"D"df "E7"e2|"A"aa e/2f/2e/2d/2|"E7"c/2A/2B "A"A2:|
P:B
"A"ce/2c/2 BA|"D"Bc "E7"E2|"A"ce/2c/2 BA|"E7"F/2E/2F/2G/2 "A"A2:|<end>
<start>
